X:501
T:The Redower
M:2/2
L:1/8
K:G
P:A
"G"GBd2 d2dd|dedc B2B2|GAB2 GAB2|"D"B2A2 A4|
"D"ABc2 c2cc|cdcB A2A2|"D7"FGA2 FGA2|"G"A2G2 G4:|
P:B
|:"G"GBd2 g3d|d2B2 "Am"cdcB|"D"ABc2 f3e|e2d2 "D7"dedc|
"G"Bcd2 g3d|d2B2 "Am"cdcB|"D"ABc2 f3e|"D7"ddef "G"g2z2:|
P:C
|:"G"G2Bc BcB2|"A"A2^cd cdc2|"G"B2GG A2B2|"C"c2d2 "D"a2g2|
"G"G2Bc BcB2|"A"A2^cd cdc2|"G"B2GG A2B2|"C"c4 "(D7 last time)"c4:|



